X: 30421
T: Old Tom Of Oxford
R: reel
M: 4/4
K: Gmajor
|:"G" G/A/B/c/ dc|BA Gd|G/A/B/c/ dg|"D"fg ad|
"G" g/f/g/a/ bg|"D" af "G"gd|"G"gd "C" ed/c/|"G"BA G2:|
|:"G"Bd Bd|Bd dc/B/|"C" ce ce|ce ee/f/|
"G"g/f/g/a/ bg|"D"af "G"gd|"G"gd "C" ed/c/|"G"BA G2:|

